X: 8259
T: Coridinio
R: hornpipe
M: 4/4
K: Amajor
|:EAc|BAGA BAGF|G2EG BdBG|e2EG BdBG|e2c3EAc|
BAGA BAG=G|F2DF AdcB|ecAc dBGE|A2AG A:|
|:=c=cB|BAA=G =G=F=FE|E3G BEGB|E2 EG BEGB|=c2A3=c=cB|
BAA=G =G=F=FE|D3E =F=GAB|=cAE=c BGEG|A2AG A:|
|:Bcd|e2cd ecde|f2de fdef|g2ef gefg|a2c'c'2Bcd|
e2cd ecde|f2de fdef|g2ga gefg|aece A:|

